X:1
T:Title
%%score { ( 1 3 4 ) | ( 2 5 6 ) }
L:1/8
M:4/4
K:D
V:1 treble nm="Grand Piano"
V:3 treble 
V:4 treble 
V:2 bass 
V:5 bass 
V:6 bass 
V:1
 z4 z2[Q:1/4=100] D2 | z2 z E F2 [B,DG]2 | [CEA]2 GF E2 z C | A3 A G2 F2 |[M:3/4] E4 z2 | %5
[M:1/4] D2 |[M:4/4] z2 z E F2 [B,DG]2 | [CEA]2 GF E2 z C | A3 A G2 F2 |[M:3/4] E4 z2 |[M:1/4] F2 | %11
[M:4/4] [^DB]4 z4 | [A,EA]2 [A,CA]2 [A,DF]2 [FA]2 | d2- [B,Gd]2 [EBd]2 [EAc]2 | %14
[M:3/4] [EAB]2 [E^GB]2 [CA]2 |[M:1/4][K:bass] [F,D]2 |[M:4/4] D4[K:treble] z4 | [CEA]2 GF E2 z C | %18
 A3 A G2 F2 |[M:7/4] E4 z2 z2 z2 z4 |] %20
V:2
 z4 z2 [D,F,]2 | D,3 [D,D] [D,A,D]2 B,,2 | A,,2 A,,2 [A,C]2 .[G,B,E]2 | %3
 [F,DF]3 [F,A,D] [E,A,C]2 [D,A,D]2 |[M:3/4] [A,,A,]2 [A,,A,]2 [D,F,]2 |[M:1/4] [D,F,]2 | %6
[M:4/4] D,3 [D,D] [D,A,D]2 B,,2 | A,,2 A,,2 [A,C]2 .[G,B,E]2 | [F,DF]3 [F,A,D] [E,A,C]2 [D,A,D]2 | %9
[M:3/4] [A,,A,]2 [A,,A,]2 [D,F,]2 |[M:1/4] [D,A,D]2 |[M:4/4] [B,,B,]2 z ^D z2 z E, | z4 z2 A,2 | %13
 [B,,B,]2 z[K:treble] d[K:bass] ^G,,2 A,,2 |[M:3/4] E,2 E,2 A,,2 |[M:1/4] D,2 |[M:4/4] z2 G,2 z4 | %17
 A,,2 A,,2 [A,C]2 .[G,B,E]2 | [F,DF]3 [F,A,D] [E,A,C]2 [D,A,D]2 | %19
[M:7/4] [A,,A,]2 [A,,A,]2 [D,F,]2 z2 z2 z4 |] %20
V:3
 x8 | D4 z4 | z2 [CE]2 z2 B2 | x8 |[M:3/4] D2 z D D2 |[M:1/4] x2 |[M:4/4] D4 z4 | z2 [CE]2 z2 B2 | %8
 x8 |[M:3/4] D2 z D D2 |[M:1/4] x2 |[M:4/4] z2 z B [B,E^G]2 EE | x8 | F2 z2 z4 |[M:3/4] x6 | %15
[M:1/4][K:bass] x2 |[M:4/4] F,2 z[K:treble] [DE] [A,DF]2 [B,DG]2 | z2 [CE]2 z2 B2 | x8 | %19
[M:7/4] D2 z D D2 z2 z2 z4 |] %20
V:4
 x8 | z2 G,2 z4 | x8 | x8 |[M:3/4] z2 C2 z2 |[M:1/4] x2 |[M:4/4] z2 G,2 z4 | x8 | x8 | %9
[M:3/4] z2 C2 z2 |[M:1/4] x2 |[M:4/4] z2 B,2 z4 | x8 | x8 |[M:3/4] x6 |[M:1/4][K:bass] x2 | %16
[M:4/4] x3[K:treble] x5 | x8 | x8 |[M:7/4] z2 C2 z2 z2 z2 z4 |] %20
V:5
 x8 | F,2 z2 z4 | x8 | x8 |[M:3/4] x6 |[M:1/4] x2 |[M:4/4] F,2 z2 z4 | x8 | x8 |[M:3/4] x6 | %10
[M:1/4] x2 |[M:4/4] z4 z2 G,2 | z4 D,4 | z2 G,,2[K:treble][K:bass] z4 |[M:3/4] x6 |[M:1/4] x2 | %16
[M:4/4] D,4 z4 | x8 | x8 |[M:7/4] x14 |] %20
V:6
 x8 | x8 | x8 | x8 |[M:3/4] x6 |[M:1/4] x2 |[M:4/4] x8 | x8 | x8 |[M:3/4] x6 |[M:1/4] x2 | %11
[M:4/4] z2 B,,2 E,4 | C,2 A,,2 z2 z D, | x3[K:treble] x[K:bass] x4 |[M:3/4] x6 |[M:1/4] x2 | %16
[M:4/4] z2 z D, D,2 B,,2 | x8 | x8 |[M:7/4] x14 |] %20

